src/assets/icons/letters,fancy,serif-p.svg

<svg width="48" height="48" viewBox="0 0 48 48" fill="none" xmlns="http://www.w3.org/2000/svg">
<path d="M36.9809 15.872C36.9809 18.608 35.9169 20.698 33.7889 22.142C31.6609 23.5607 28.5702 24.27 24.5169 24.27H21.2869V30.958C21.2869 31.9207 21.3502 32.706 21.4769 33.314C21.6035 33.8967 21.8695 34.3527 22.2749 34.682C22.6802 35.0113 23.2375 35.2267 23.9469 35.328C24.6562 35.4293 25.6062 35.48 26.7969 35.48V37H11.7109V35.48C12.5469 35.4547 13.2309 35.3787 13.7629 35.252C14.2949 35.1253 14.7002 34.91 14.9789 34.606C15.2575 34.302 15.4475 33.8713 15.5489 33.314C15.6502 32.7567 15.7009 32.0347 15.7009 31.148V13.592C15.7009 12.7053 15.6502 11.996 15.5489 11.464C15.4729 10.9067 15.3082 10.476 15.0549 10.172C14.8015 9.84267 14.4342 9.62733 13.9529 9.526C13.4969 9.39933 12.8889 9.31067 12.1289 9.26V7.74H25.2769C29.1275 7.74 32.0409 8.424 34.0169 9.792C35.9929 11.16 36.9809 13.1867 36.9809 15.872ZM21.2869 21.99H23.7569C26.2142 21.99 28.0129 21.496 29.1529 20.508C30.2929 19.52 30.8629 17.962 30.8629 15.834C30.8629 13.934 30.3815 12.4647 29.4189 11.426C28.4562 10.3873 26.9489 9.868 24.8969 9.868H21.9709C21.5149 9.868 21.2869 10.0833 21.2869 10.514V21.99Z" fill="black"/>
</svg>

<svg xmlns="http://www.w3.org/2000/svg" width="48" height="48" fill="none" viewBox="0 0 48 48">
  <path fill="#000" d="M36.98 15.872c0 2.736-1.063 4.826-3.191 6.27-2.128 1.419-5.219 2.128-9.272 2.128h-3.23v6.688c0 .963.063 1.748.19 2.356.127.583.392 1.039.798 1.368.405.33.963.545 1.672.646.71.101 1.66.152 2.85.152V37H11.71v-1.52c.836-.025 1.52-.101 2.052-.228s.937-.342 1.216-.646c.279-.304.469-.735.57-1.292.101-.557.152-1.28.152-2.166V13.592c0-.887-.05-1.596-.152-2.128-.076-.557-.24-.988-.494-1.292-.253-.33-.62-.545-1.102-.646-.456-.127-1.064-.215-1.824-.266V7.74h13.148c3.85 0 6.764.684 8.74 2.052 1.976 1.368 2.964 3.395 2.964 6.08zM21.288 21.99h2.47c2.457 0 4.256-.494 5.396-1.482 1.14-.988 1.71-2.546 1.71-4.674 0-1.9-.482-3.37-1.444-4.408-.963-1.039-2.47-1.558-4.522-1.558H21.97c-.456 0-.684.215-.684.646V21.99z"/>
</svg>
